X:1
T:Salonica, 87.87 D
T:Salonica, 87.87 D
T:Charles Edward Pollock (1853-1924)
T:Public Domain Courtesy of the Cyber Hymnal™
C:Charles Edward Pollock (1853-1924)
Z:Public Domain
Z:Courtesy of the Cyber Hymnal™
%%score 1 ( 2 3 )
L:1/8
Q:1/4=100
M:3/4
K:Ab
V:1 treble 
V:2 bass 
V:3 bass 
V:1
 [Ec][DB] | [CA]3 [EB] [FA][DF] | [DF]2 [CE]2 [EA][EB] | [Ec]3 [EB] [Ed][Ec] | [EB]4 [Ec][DB] | %5
 [CA]3 [EB] [FA][DF] | [DF]2 [CE]2 [DF][DG] | [FA][FB] [Ec]2 [DB]2 | [CA]4 [Ec][Ae] | %9
 [Ae]3 [Ec] [EA][Ec] | [Ec]2 [EB]2 [Ec][Ae] | [Ae]3 [Ec] [Ec][EB] | [EB]4 [Ec][DB] | %13
 [CA]3 [EB] [FA][DF] | [DF]2 [CE]2 [DF][EG] | [FA][FB] [Ec]2 [DB]2 | [CA]4 |] %17
V:2
 [A,,A,][A,,E,] | [A,,E,]3 [C,A,] [D,A,][D,A,] | [A,,A,]2 [A,,A,]2 [C,A,][E,G,] | %3
 A,3 [E,G,] [G,B,]A, | [E,G,]4 [A,,A,][A,,E,] | [A,,E,]3 [C,A,] [D,A,][D,A,] | %6
 [A,,A,]2 [A,,A,]2 [D,A,][D,A,] | [D,A,][D,A,] [E,A,]2 [E,G,]2 | [A,,A,]4 A,[A,C] | %9
 [A,C]3 A, [A,C]A, | [E,A,]2 [E,G,]2 A,[A,C] | [A,C]3 A, [E,A,][E,G,] | [E,G,]4 [A,,A,][A,,A,] | %13
 [A,,A,]3 [C,A,] [D,A,][D,A,] | [A,,A,]2 [A,,A,]2 [D,A,][D,A,] | [D,A,][D,A,] [E,A,]2 [E,G,]2 | %16
 [A,,A,]4 |] %17
V:3
 x2 | x6 | x6 | A,3 A, x2 | x6 | x6 | x6 | x6 | x4 A, x | x3 A, A, x | x4 A, x | x3 A, x2 | x6 | %13
 x6 | x6 | x6 | x4 |] %17

